X: 5
T: La Partida
R: waltz
M: 3/4
L: 1/8
K: Bmin
~ | B2 ^AB- B=c | B2 AG- GF | FG/F/ E^D E2 | zG FE DC |B,^A, B,C DE | FG FE DC | B,C/B,/ ^AB DF |[1 BF GF ^EF :|[2 B2 F2 F2 ||B,^A, B,C DE | FG FE DC | B,C/B,/ ^AB DF |[1 B2 F2 F2 :|[2 B |]~ | B2 ^AB- B=c | B2 AG- GF | FG/F/ E^D E2 | zG FE Dc |B^A Bc de | fg fe dc | Bc/B/ F2 ^A2 |[1 BF GF ^EF :|[2 B2 F2 F2 ||B^A Bc de | fg fe dc | Bc/B/ ^AB DF |[1 B2 F2 F2 :|[2 B |]~ | B2 ^AB- B=c | B2 AG- GF | FG/F/ E^D E2 | zG FE DF |DE DE FG | FG FE DF | DE/D/ ^AB DF |[1 BF GF ^EF :|[2 B2 F2 F2 ||DE DE FG | FG FE DF | DE/D/ ^AB DF |[1 B2 F2 F2 :|[2 B |]


Tune 3575	Setting 16601

